X:316
T: DER MEIE BRINGT UNS BLUEMLEIN VIEL
N: E0931
O: Europa, Mitteleuropa, Deutschland
R: Tanz - Lied, Reigen; Liebe
M: 4/4
L: 1/8
K: G
G2 | d4d2G2 | d4d2
=f2 | e2d2c2B2 | cdecd2
d2 | B2B2c2c2 | d4B2
B2 | c2c2d2d2 | B4G2
G2 | c2c2A2A2 | G4z2

@@@ Tune index: 4629
